src/icons/svgs/16/file-pdf.svg

<svg width="16" height="16" viewBox="0 0 16 16" fill="none" xmlns="http://www.w3.org/2000/svg">
<path d="M7.79167 6.28125C7.79167 6.16938 7.69807 6.07812 7.58333 6.07812C7.46859 6.07812 7.375 6.16953 7.375 6.28125C7.375 6.33361 7.38273 6.87311 7.61305 7.55713C7.66406 7.3375 7.79167 6.74336 7.79167 6.28125ZM9.66667 1V4.25H13L9.66667 1ZM5.08333 11.725C5.08333 11.9702 5.35599 12.0289 5.45781 11.8869C5.58516 11.7123 5.83333 11.3594 6.1276 10.8668C5.75729 11.0691 5.41797 11.3063 5.1375 11.5856C5.10286 11.6209 5.08333 11.6717 5.08333 11.725ZM8.83333 4.25V1H4.25C3.55964 1 3 1.54564 3 2.21875V12.7812C3 13.4541 3.55964 14 4.25 14H11.75C12.4404 14 13 13.4544 13 12.7812V5.0625H9.6901C9.20573 5.0625 8.83333 4.69941 8.83333 4.25ZM10.6042 8.92188C11.2359 8.92188 11.75 9.42309 11.75 10.0391C11.75 10.6654 11.2568 11.1562 10.6268 11.1562C10.4707 11.1562 10.3193 11.1321 10.1784 11.085C9.65599 10.9134 9.17891 10.6798 8.75781 10.3896C8.13594 10.5193 7.57396 10.6821 7.08307 10.8745C6.70729 11.5426 6.36354 12.0463 6.13594 12.3576C5.91927 12.6238 5.625 12.7812 5.2901 12.7812C4.71667 12.7812 4.25 12.3268 4.25 11.7682C4.25 11.4655 4.3474 11.2141 4.54115 11.0189C4.9625 10.5994 5.51432 10.232 6.18229 9.92582C6.48828 9.34615 6.75365 8.75684 6.97214 8.17031C6.54688 7.15469 6.54167 6.29141 6.54167 6.28125C6.54167 5.72139 7.00911 5.26562 7.58333 5.26562C8.15781 5.26562 8.625 5.72139 8.625 6.28125C8.625 6.89316 8.4368 7.69678 8.39224 7.87146C8.36622 7.95398 8.33946 8.03627 8.31198 8.11834C8.51589 8.48549 8.77292 8.80922 9.07865 9.08445C9.85156 8.95742 10.4036 8.92441 10.4896 8.92188H10.6042ZM7.07552 10.0035C7.54375 9.83848 8.01641 9.71305 8.45365 9.61783C8.13021 9.31162 7.8763 8.98002 7.6776 8.64893C7.49885 9.10943 7.29793 9.56146 7.07552 10.0035ZM10.6276 10.3438C10.7865 10.3438 10.9167 10.2168 10.9167 10.0619C10.9167 9.87148 10.776 9.73438 10.6042 9.73438H10.5C10.491 9.73516 10.0617 9.75898 9.43359 9.85498C9.72708 10.0327 10.0617 10.1899 10.4451 10.3151C10.5 10.3336 10.5651 10.3438 10.6276 10.3438Z" fill="black"/>
</svg>

<svg width="16" height="16" viewBox="0 0 16 16" xmlns="http://www.w3.org/2000/svg">
    <path d="M7.792 6.281a.206.206 0 0 0-.209-.203.206.206 0 0 0-.208.203c0 .053.008.592.238 1.276.051-.22.179-.814.179-1.276ZM9.667 1v3.25H13L9.667 1ZM5.083 11.725c0 .245.273.304.375.162.127-.175.375-.528.67-1.02-.37.202-.71.44-.99.719a.2.2 0 0 0-.055.139Zm3.75-7.475V1H4.25C3.56 1 3 1.546 3 2.219V12.78c0 .674.56 1.22 1.25 1.22h7.5c.69 0 1.25-.546 1.25-1.219V5.062H9.69c-.484 0-.857-.363-.857-.812Zm1.771 4.672c.632 0 1.146.501 1.146 1.117 0 .626-.493 1.117-1.123 1.117-.156 0-.308-.024-.449-.071a5.55 5.55 0 0 1-1.42-.695 10.48 10.48 0 0 0-1.675.484 14.98 14.98 0 0 1-.947 1.484c-.217.266-.511.423-.846.423-.573 0-1.04-.454-1.04-1.013 0-.303.097-.554.291-.75.421-.419.973-.786 1.641-1.092.306-.58.572-1.17.79-1.756a5.459 5.459 0 0 1-.43-1.889c0-.56.467-1.015 1.041-1.015.575 0 1.042.455 1.042 1.015 0 .612-.188 1.416-.233 1.59l-.08.247c.204.367.46.691.767.966a12.72 12.72 0 0 1 1.41-.162h.115Zm-3.528 1.082a11.6 11.6 0 0 1 1.378-.386 4.565 4.565 0 0 1-.776-.97c-.18.461-.38.913-.602 1.356Zm3.552.34a.286.286 0 0 0 .289-.282.316.316 0 0 0-.313-.328H10.5c-.009.001-.438.025-1.066.121.293.178.628.335 1.011.46.055.019.12.029.183.029Z"/>
</svg>
